assets/images/logo_canada.svg

<svg width="144" height="35" viewBox="0 0 144 35" fill="none" xmlns="http://www.w3.org/2000/svg">
<path d="M136.003 0.205933H141.203V10.6059H136.003V0.205933ZM127.003 5.40593L126.703 5.50593C126.703 5.50593 128.503 7.00593 128.503 7.10593C128.603 7.20593 128.703 7.20593 128.603 7.50593C128.503 7.80593 128.403 8.10593 128.403 8.10593C128.403 8.10593 130.003 7.80593 130.203 7.70593C130.403 7.70593 130.503 7.70593 130.503 7.90593C130.503 8.10593 130.403 9.80593 130.403 9.80593H130.903C130.903 9.80593 130.803 8.00593 130.803 7.90593C130.803 7.70593 130.903 7.70593 131.103 7.70593C131.303 7.70593 132.903 8.10593 132.903 8.10593C132.903 8.10593 132.803 7.70593 132.703 7.50593C132.603 7.20593 132.703 7.20593 132.803 7.10593C132.903 7.00593 134.603 5.50593 134.603 5.50593L134.303 5.40593C134.103 5.30593 134.203 5.20593 134.203 5.10593C134.203 5.00593 134.503 4.00593 134.503 4.00593C134.503 4.00593 133.703 4.20593 133.603 4.20593C133.503 4.20593 133.403 4.20593 133.403 4.10593C133.403 4.00593 133.203 3.60593 133.203 3.60593C133.203 3.60593 132.303 4.60593 132.203 4.70593C132.003 4.90593 131.803 4.70593 131.903 4.50593C131.903 4.30593 132.403 2.20593 132.403 2.20593C132.403 2.20593 131.903 2.50593 131.703 2.60593C131.503 2.70593 131.403 2.70593 131.403 2.50593C131.303 2.30593 130.703 1.20593 130.703 1.10593C130.703 1.10593 130.103 2.30593 130.003 2.50593C129.903 2.70593 129.803 2.70593 129.703 2.60593C129.503 2.50593 129.003 2.20593 129.003 2.20593C129.003 2.20593 129.503 4.30593 129.503 4.50593C129.503 4.70593 129.403 4.80593 129.203 4.70593L128.203 3.60593C128.203 3.60593 128.103 3.90593 128.003 4.00593C128.003 4.10593 127.903 4.20593 127.803 4.10593C127.603 4.10593 126.803 3.90593 126.803 3.90593C126.803 3.90593 127.103 4.90593 127.203 5.00593C127.203 5.10593 127.203 5.30593 127.003 5.40593ZM120.303 0.205933H125.503V10.6059H120.303V0.205933Z" fill="#FF0000"/>
<path d="M142.303 31.4059C141.903 32.3059 141.103 32.6059 140.603 32.6059C140.003 32.6059 138.203 32.5059 138.203 27.8059C138.203 27.8059 138.203 18.3059 138.203 17.7059C138.203 14.6059 135.803 12.1059 129.603 12.1059C122.903 12.1059 122.803 15.4059 122.803 16.2059C122.703 17.1059 123.203 18.1059 124.903 18.1059C126.403 18.1059 126.803 16.4059 127.003 15.8059C127.203 15.1059 127.303 13.1059 130.003 13.1059C132.303 13.1059 133.703 15.1059 133.803 18.0059C133.803 18.5059 133.803 18.8059 133.803 19.1059C133.803 19.3059 133.803 19.4059 133.803 19.6059V19.7059C133.603 20.7059 133.103 21.2059 132.203 21.6059C131.003 22.2059 127.503 22.7059 127.103 22.8059C125.703 23.1059 121.803 24.1059 121.903 28.2059C122.003 32.2059 126.003 33.6059 128.803 33.5059C131.503 33.4059 133.103 32.3059 133.803 31.7059C134.203 31.4059 134.203 31.4059 134.503 31.8059C134.903 32.2059 136.203 33.5059 139.303 33.5059C142.503 33.5059 142.903 32.0059 143.103 31.5059C143.203 31.2059 142.503 30.9059 142.303 31.4059ZM129.803 32.5059C127.003 32.5059 126.303 30.2059 126.303 29.0059C126.303 27.9059 126.903 25.6059 129.703 24.0059C129.703 24.0059 131.003 23.2059 133.503 22.2059C133.603 22.2059 133.703 22.2059 133.703 22.2059C133.703 22.2059 133.803 22.3059 133.803 22.4059V22.5059V22.6059V26.8059C133.803 30.1059 132.203 32.5059 129.803 32.5059ZM120.603 32.4059C120.203 32.3059 117.703 32.6059 117.703 25.0059C117.703 17.4059 117.703 1.10589 117.703 1.10589C117.703 0.805888 117.703 0.00588839 116.803 0.00588839C115.903 0.00588839 109.903 0.305888 109.503 0.405888C109.103 0.405888 108.803 0.905888 109.503 0.905888C110.203 1.00589 113.403 1.20589 113.403 6.50589C113.403 9.10589 113.403 11.7059 113.403 13.6059C113.403 13.7059 113.403 13.8059 113.403 13.8059C113.403 14.0059 113.403 14.1059 113.303 14.2059C113.303 14.2059 113.303 14.2059 113.303 14.3059C113.203 14.4059 113.103 14.3059 112.803 14.1059C112.303 13.7059 110.003 12.3059 107.103 12.3059C102.403 12.3059 96.6034 15.7059 96.6034 22.7059C96.6034 30.2059 101.903 33.8059 107.403 33.8059C110.103 33.8059 112.003 32.6059 112.703 32.2059C113.503 31.7059 113.403 31.8059 113.503 32.5059C113.603 33.0059 113.503 34.0059 114.903 33.9059C116.403 33.7059 120.003 33.3059 120.703 33.2059C121.403 32.9059 121.203 32.5059 120.603 32.4059ZM108.203 32.7059C103.803 32.7059 101.503 27.5059 101.503 22.5059C101.503 17.0059 104.603 13.3059 107.903 13.5059C112.203 13.8059 113.303 17.2059 113.403 23.3059C113.403 23.7059 113.403 24.1059 113.403 24.6059C113.303 30.6059 110.803 32.7059 108.203 32.7059ZM96.5034 31.4059C96.1034 32.3059 95.3034 32.6059 94.8034 32.6059C94.2034 32.6059 92.4034 32.5059 92.4034 27.8059C92.4034 27.8059 92.4034 18.3059 92.4034 17.7059C92.4034 14.6059 90.0034 12.1059 83.8034 12.1059C77.1034 12.1059 77.0034 15.4059 77.0034 16.2059C76.9034 17.1059 77.4034 18.1059 79.1034 18.1059C80.6034 18.1059 81.0034 16.4059 81.2034 15.8059C81.4034 15.1059 81.5034 13.1059 84.2034 13.1059C86.5034 13.1059 88.0034 15.1059 88.0034 18.1059V18.2059C88.0034 18.3059 88.0034 18.4059 88.0034 18.4059V18.7059C88.0034 18.8059 88.0034 19.0059 88.0034 19.1059C87.9034 20.6059 87.5034 21.1059 86.3034 21.7059C85.1034 22.3059 81.6034 22.8059 81.2034 22.9059C79.8034 23.2059 75.9034 24.2059 76.0034 28.3059C76.1034 32.3059 80.1034 33.7059 82.9034 33.6059C85.6034 33.5059 87.2034 32.4059 87.9034 31.8059C88.3034 31.5059 88.3034 31.5059 88.6034 31.9059C89.0034 32.3059 90.3034 33.6059 93.4034 33.6059C96.6034 33.6059 97.0034 32.1059 97.2034 31.6059C97.4034 31.2059 96.8034 30.9059 96.5034 31.4059ZM84.1034 32.5059C81.3034 32.5059 80.6034 30.2059 80.6034 29.0059C80.6034 27.9059 81.2034 25.6059 84.0034 24.0059C84.0034 24.0059 85.3034 23.2059 87.8034 22.2059C87.9034 22.2059 88.0034 22.2059 88.0034 22.2059V22.3059C88.0034 22.4059 88.0034 22.5059 88.0034 22.7059V22.6059C88.0034 22.6059 88.0034 22.6059 88.0034 22.7059V26.9059C88.0034 30.1059 86.4034 32.5059 84.1034 32.5059ZM74.5034 32.4059C73.7034 32.2059 72.3034 31.3059 72.3034 26.9059V18.9059C72.3034 17.0059 72.5034 12.1059 65.0034 12.1059C61.1034 12.1059 58.9034 14.1059 58.7034 14.2059C58.4034 14.5059 58.2034 14.6059 58.1034 14.1059C58.0034 13.7059 57.8034 13.1059 57.7034 12.7059C57.6034 12.4059 57.4034 12.1059 56.7034 12.2059C56.0034 12.3059 51.6034 13.0059 50.8034 13.2059C50.1034 13.4059 50.3034 13.7059 50.8034 13.8059C51.3034 13.9059 53.7034 14.1059 53.7034 18.2059C53.7034 22.3059 53.7034 26.8059 53.7034 26.8059C53.7034 31.8059 52.7034 32.2059 51.8034 32.5059C50.6034 32.8059 51.2034 33.2059 51.7034 33.2059C51.7034 33.2059 60.6034 33.2059 60.8034 33.2059C61.4034 33.2059 61.7034 32.6059 60.5034 32.4059C59.3034 32.2059 58.2034 31.5059 58.2034 27.6059C58.2034 27.2059 58.2034 22.9059 58.2034 22.1059C58.2034 20.0059 57.7034 13.6059 63.5034 13.5059C67.6034 13.4059 68.0034 16.8059 68.0034 19.0059V27.5059C68.0034 31.0059 67.0034 32.1059 65.8034 32.3059C64.7034 32.5059 64.9034 33.0059 65.5034 33.0059C65.7034 33.0059 74.8034 33.0059 74.8034 33.0059C75.3034 33.2059 75.8034 32.7059 74.5034 32.4059ZM50.2034 31.4059C49.8034 32.3059 49.0034 32.6059 48.5034 32.6059C47.9034 32.6059 46.1034 32.5059 46.1034 27.8059C46.1034 27.8059 46.1034 18.3059 46.1034 17.7059C46.1034 14.6059 43.7034 12.1059 37.5034 12.1059C30.8034 12.1059 30.7034 15.4059 30.7034 16.2059C30.6034 17.1059 31.1034 18.1059 32.8034 18.1059C34.3034 18.1059 34.7034 16.4059 34.9034 15.8059C35.1034 15.1059 35.2034 13.1059 37.9034 13.1059C40.2034 13.1059 41.6034 15.1059 41.7034 18.0059C41.7034 18.5059 41.7034 18.8059 41.7034 19.1059C41.7034 19.3059 41.7034 19.5059 41.6034 19.6059V19.7059C41.4034 20.7059 40.9034 21.2059 40.0034 21.6059C38.8034 22.2059 35.3034 22.7059 34.9034 22.8059C33.5034 23.1059 29.6034 24.1059 29.7034 28.2059C29.8034 32.2059 33.8034 33.6059 36.6034 33.5059C39.3034 33.4059 40.9034 32.3059 41.6034 31.7059C42.0034 31.4059 42.0034 31.4059 42.3034 31.8059C42.7034 32.2059 44.0034 33.5059 47.1034 33.5059C50.3034 33.5059 50.7034 32.0059 50.9034 31.5059C51.1034 31.2059 50.4034 30.9059 50.2034 31.4059ZM37.7034 32.5059C34.9034 32.5059 34.2034 30.2059 34.2034 29.0059C34.2034 27.8059 34.8034 25.6059 37.6034 24.0059C37.6034 24.0059 38.9034 23.2059 41.4034 22.2059C41.5034 22.2059 41.6034 22.2059 41.6034 22.2059C41.6034 22.2059 41.7034 22.3059 41.7034 22.4059C41.7034 22.4059 41.7034 22.5059 41.7034 22.6059V22.7059V26.9059C41.7034 30.1059 40.1034 32.5059 37.7034 32.5059ZM28.1034 23.8059C27.1034 27.0059 25.2034 32.2059 18.3034 32.4059C11.1034 32.5059 6.80338 27.6059 6.60338 18.5059C6.30338 8.80589 10.5034 1.40589 17.0034 1.20589C24.3034 1.10589 26.9034 9.80589 27.0034 11.1059C27.1034 12.1059 28.4034 12.0059 28.4034 11.0059C28.4034 10.5059 27.8034 1.90589 27.6034 0.905888C27.4034 -0.0941116 26.6034 0.305888 26.4034 0.705888C26.3034 1.00589 26.5034 0.405888 26.1034 1.30589C25.7034 2.20589 24.6034 1.70589 24.2034 1.60589C23.0034 1.10589 20.7034 -0.0941116 17.0034 0.00588839C8.50338 0.205888 -0.196616 6.50589 0.00338381 17.5059C0.203384 28.2059 8.80338 34.2059 16.8034 34.1059C24.1034 34.0059 28.2034 29.4059 29.4034 24.1059C29.8034 22.8059 28.5034 22.5059 28.1034 23.8059Z" fill="white"/>
</svg>

<svg id="Layer_1" data-name="Layer 1" xmlns="http://www.w3.org/2000/svg" viewBox="0 0 143.11 34.11"><path d="M136,.21h5.2v10.4H136Zm-9,5.2-.3.1s1.8,1.5,1.8,1.6.2.1.1.4l-.2.6s1.6-.3,1.8-.4.3,0,.3.2-.1,1.9-.1,1.9h.5s-.1-1.8-.1-1.9.1-.2.3-.2,1.8.4,1.8.4a3.93,3.93,0,0,0-.2-.6c-.1-.3,0-.3.1-.4s1.8-1.6,1.8-1.6l-.3-.1c-.2-.1-.1-.2-.1-.3s.3-1.1.3-1.1-.8.2-.9.2-.2,0-.2-.1a2.57,2.57,0,0,0-.2-.5s-.9,1-1,1.1-.4,0-.3-.2.5-2.3.5-2.3-.5.3-.7.4-.3.1-.3-.1-.7-1.3-.7-1.4l-.7,1.4c-.1.2-.2.2-.3.1s-.7-.4-.7-.4.5,2.1.5,2.3-.1.3-.3.2l-1-1.1a1.42,1.42,0,0,1-.2.4c0,.1-.1.2-.2.1a8.66,8.66,0,0,1-1-.2,7.6,7.6,0,0,0,.4,1.1A.4.4,0,0,1,127,5.41ZM120.3.21h5.2v10.4h-5.2Z" transform="translate(0 0)" fill="red"/><path d="M142.3,31.41a1.93,1.93,0,0,1-1.7,1.2c-.6,0-2.4-.1-2.4-4.8V17.71c0-3.1-2.4-5.6-8.6-5.6-6.7,0-6.8,3.3-6.8,4.1s.4,1.9,2.1,1.9c1.5,0,1.9-1.7,2.1-2.3s.3-2.7,3-2.7c2.3,0,3.7,2,3.8,4.9v1.7a2.4,2.4,0,0,1-1.6,1.9,29.72,29.72,0,0,1-5.1,1.2c-1.4.3-5.3,1.3-5.2,5.4s4.1,5.4,6.9,5.3a8,8,0,0,0,5-1.8c.4-.3.4-.3.7.1s1.7,1.7,4.8,1.7,3.6-1.5,3.8-2C143.2,31.21,142.5,30.91,142.3,31.41Zm-12.5,1.1a3.36,3.36,0,0,1-3.5-3.5,6.05,6.05,0,0,1,3.4-5,27.32,27.32,0,0,1,3.8-1.8h.2a.35.35,0,0,1,.1.2v4.4C133.8,30.11,132.2,32.51,129.8,32.51Zm-9.2-.1c-.4-.1-2.9.2-2.9-7.4V1.11c0-.3,0-1.1-.9-1.1s-6.9.3-7.3.4-.7.5,0,.5,3.9.3,3.9,5.6v7.3c0,.2,0,.3-.1.4v.1c-.1.1-.2,0-.5-.2a10.23,10.23,0,0,0-5.7-1.8c-4.7,0-10.5,3.4-10.5,10.4,0,7.5,5.3,11.1,10.8,11.1a10.2,10.2,0,0,0,5.3-1.6c.8-.5.7-.4.8.3.1.5,0,1.5,1.4,1.4s5.1-.6,5.8-.7C121.4,32.91,121.2,32.51,120.6,32.41Zm-12.4.3c-4.4,0-6.7-5.2-6.7-10.2,0-5.5,3.1-9.2,6.4-9,4.3.3,5.4,3.7,5.5,9.8v1.3C113.3,30.61,110.8,32.71,108.2,32.71Zm-11.7-1.3a1.93,1.93,0,0,1-1.7,1.2c-.6,0-2.4-.1-2.4-4.8V17.71c0-3.1-2.4-5.6-8.6-5.6-6.7,0-6.8,3.3-6.8,4.1s.4,1.9,2.1,1.9c1.5,0,1.9-1.7,2.1-2.3s.3-2.7,3-2.7c2.3,0,3.8,2,3.8,5v1a2.54,2.54,0,0,1-1.7,2.6,29.72,29.72,0,0,1-5.1,1.2c-1.4.3-5.3,1.3-5.2,5.4s4.1,5.4,6.9,5.3a8,8,0,0,0,5-1.8c.4-.3.4-.3.7.1s1.7,1.7,4.8,1.7,3.6-1.5,3.8-2S96.8,30.91,96.5,31.41Zm-12.4,1.1A3.36,3.36,0,0,1,80.6,29,6.05,6.05,0,0,1,84,24a27.32,27.32,0,0,1,3.8-1.8H88v4.7C88,30.11,86.4,32.51,84.1,32.51Zm-9.6-.1c-.8-.2-2.2-1.1-2.2-5.5v-8c0-1.9.2-6.8-7.3-6.8a10.15,10.15,0,0,0-6.3,2.1c-.3.3-.5.4-.6-.1s-.3-1-.4-1.4-.3-.6-1-.5-5.1.8-5.9,1-.5.5,0,.6,2.9.3,2.9,4.4v8.6c0,5-1,5.4-1.9,5.7-1.2.3-.6.7-.1.7h9.1c.6,0,.9-.6-.3-.8s-2.3-.9-2.3-4.8v-5.5c0-2.1-.5-8.5,5.3-8.6,4.1-.1,4.5,3.3,4.5,5.5v8.5c0,3.5-1,4.6-2.2,4.8s-.9.7-.3.7h9.3C75.3,33.21,75.8,32.71,74.5,32.41Zm-24.3-1a1.93,1.93,0,0,1-1.7,1.2c-.6,0-2.4-.1-2.4-4.8V17.71c0-3.1-2.4-5.6-8.6-5.6-6.7,0-6.8,3.3-6.8,4.1s.4,1.9,2.1,1.9c1.5,0,1.9-1.7,2.1-2.3s.3-2.7,3-2.7c2.3,0,3.7,2,3.8,4.9v1.1a.75.75,0,0,1-.1.5v.1a2.4,2.4,0,0,1-1.6,1.9,29.72,29.72,0,0,1-5.1,1.2c-1.4.3-5.3,1.3-5.2,5.4s4.1,5.4,6.9,5.3a8,8,0,0,0,5-1.8c.4-.3.4-.3.7.1s1.7,1.7,4.8,1.7,3.6-1.5,3.8-2C51.1,31.21,50.4,30.91,50.2,31.41Zm-12.5,1.1A3.36,3.36,0,0,1,34.2,29c0-1.2.6-3.4,3.4-5a27.32,27.32,0,0,1,3.8-1.8h.2a.35.35,0,0,1,.1.2v4.5C41.7,30.11,40.1,32.51,37.7,32.51Zm-9.6-8.7c-1,3.2-2.9,8.4-9.8,8.6-7.2.1-11.5-4.8-11.7-13.9C6.3,8.81,10.5,1.41,17,1.21c7.3-.1,9.9,8.6,10,9.9a.7.7,0,1,0,1.4-.1c0-.5-.6-9.1-.8-10.1s-1-.6-1.2-.2.1-.3-.3.6-1.5.4-1.9.3A15.42,15.42,0,0,0,17,0C8.5.21-.2,6.51,0,17.51a16.55,16.55,0,0,0,16.8,16.6c7.3-.1,11.4-4.7,12.6-10C29.8,22.81,28.5,22.51,28.1,23.81Z" transform="translate(0 0)"/></svg>
